!!!COM: Charles Gounod
!!!CNT: Francais
!!!TXO: Francais
!!!OTL: Donne~Moi cette Fleur
!!!LYR: Le/on Gozlan
!!!ENC: Jacob Pegg
!!!YOR: Romantic French Song 1830-1870 -David Tunley, ed.,
!!!YOR: New York: Garland Publishing, Inc., 1995, Vol. 5
!!!ODT: 1868/
!!NB: Vocal melody and text only encoded.
!!NB: First instance of melodic material only encoded.
**kern	**silbe
*clef G2	*
*k[f#c#]	*
*M3/4	*
*MM[andante]	*
!!created: 6/11/03 10:24
!!proofed and posted: 6/11/03 11:09
!!edit time: 35 min.
=5	=5
{8d	{Don-
8e	-ne~
4f#	~moi
8f#	cet-
8f#	-te
=6	=6
8f#	fleur
8a	meur-
4a	-trie
8f#	En-
8d	-tre
=7	=7
8g	ta
8a	cein-
4b-	-ture
8g	et
8b-	ton
=8	=8
[4a	coeur!
8a]}	|}
8r	.
{8a	{Je
8bn	la
=9	=9
4cc#	veux
8f#	triste
8f#	et
8a	sans
8g#	cou-
=10	=10
4f#}	-leur,}
8r	.
{8a	{Don-
8b	-ne~
8cc#	~la~
=11	=11
[4dd	~moi,
8dd]	|
8d	pa^-
8a	-le et
8gn	fle/-
=12	=12
(2f#	-tri-
4e)	|
=13	=13
4d}	-e!}
4r	.
{8a	{Ni
8a	la
=14	=14
4a	rose,
8dd	e/-
8ccn	-ter-
8b-	-nel-
8a	-le
=15	=15
4ccn	fe/-
8b-}	-e,}
8r	.
{8a	{Ni
8b-	ce
=16	=16
8ccn	lys
8g	qui
4g	vient
8a	de
8b-	s'ou-
=17	=17
[4a	-vrir
8a]}	|}
8r	.
{4a	{Ne
=18	=18
8a	va-
8g#	-lent
8a	le
8g#	der-
8bn	-nier
8a	sou-
=19	=19
2ee}	-pir}
{8e	{De
8f#	la
=20	=20
8g#	pau-
8g#	-vre
4dd	fleur
8cc#	e/-
8b	-touf-
=21	=21
4b	-fe/-
[2a	-e!
=22	=22
4a]}	|}
4r	.
{8d	{Doux
8e	e/-
=23	=23
4f#	-chan-
8f#	-ge
8a	qui
8g	ra-
8e	-vit
=24	=24
4d	l'a^-
8c#}	-me!}
8r	.
{8e	{Doux
8f#	e/-
=25	=25
4g	-chan-
8g	-ge
8b	qui
8a	ra-
8e	-vit
=26	=26
4g	l'a^-
4f#}	-me!}
8r	.
{8a	{La
=27	=27
8a	femme
8ccn	a
8b	gar-
8a	-de/
8g	dans
8f#	son
=28	=28
[4g	coeur
8g]}	|}
8r	.
{8g	{Le
8a	plus
=29	=29
8b	doux
8cc#	par-
4dd	-fum
8b	de
8g#	la
=30	=30
[4a	fleur,
8a]}	|}
8r	.
{4a	{La
=31	=31
[4a	fleur,
12a]	|
12dd	le
12cc#	par-
12b	-fum
12a	de
12g	la
=32	=32
(2f#	fem-
4e)	|
=33	=33
4d}	-me!}
4r	.
4r	.
*-	*-
